packages/icons/svg/24/DownloadAlt.svg

<svg width="24" height="24" viewBox="0 0 24 24" fill="none" xmlns="http://www.w3.org/2000/svg">
<path fill-rule="evenodd" clip-rule="evenodd" d="M6.5 19.125C4.01472 19.125 2 17.1103 2 14.625C2 12.2661 3.81501 10.3311 6.12469 10.1404C6.9392 7.17703 9.65287 5 12.875 5C16.6015 5 19.6478 7.91185 19.8629 11.5844C21.1337 12.2544 22 13.5885 22 15.125C22 17.3341 20.2091 19.125 18 19.125H6.5ZM10.0277 9.5V11.8889H7.74743C7.30854 11.8889 7.0826 12.4139 7.38435 12.7326L12.3712 18L17.4191 12.7349C17.7239 12.417 17.4985 11.8889 17.0582 11.8889L14.7148 11.8889V9.5C14.7148 9.22386 14.491 9 14.2148 9L10.5277 9C10.2515 9 10.0277 9.22386 10.0277 9.5Z" fill="#858585"/>
</svg>

<svg width="24" height="24" fill="none" xmlns="http://www.w3.org/2000/svg" viewBox="0 0 24 24"><path fill-rule="evenodd" clip-rule="evenodd" d="M6.5 19.125a4.5 4.5 0 01-.375-8.985 7 7 0 0113.738 1.444A4 4 0 0118 19.124H6.5zM10.028 9.5v2.389h-2.28a.5.5 0 00-.364.844L12.371 18l5.048-5.265a.5.5 0 00-.36-.846h-2.344V9.5a.5.5 0 00-.5-.5h-3.687a.5.5 0 00-.5.5z" fill="currentColor"></path></svg>
